openmetadata-ui/src/main/resources/ui/src/assets/svg/ic-alert-bell.svg

<svg width="16" height="16" viewBox="0 0 16 16" fill="none" xmlns="http://www.w3.org/2000/svg">
<path d="M14.2806 7.21961C14.0218 7.21961 13.8118 7.00961 13.8118 6.75086C13.8118 4.95586 13.1132 3.269 11.8444 1.99962C11.6613 1.81651 11.6613 1.51965 11.8444 1.33655C12.0275 1.15344 12.3243 1.15344 12.5075 1.33655C13.9532 2.78274 14.7493 4.70592 14.7493 6.75086C14.7493 7.00961 14.5393 7.21961 14.2806 7.21961V7.21961Z" fill="#515151"/>
<path d="M1.46875 7.21904C1.21 7.21904 1 7.00904 1 6.75029C1 4.70535 1.79628 2.78217 3.24247 1.33655C3.42558 1.15344 3.72255 1.15344 3.90565 1.33655C4.08876 1.51965 4.08876 1.81663 3.90565 1.99973C2.63628 3.26842 1.9375 4.95528 1.9375 6.75029C1.9375 7.00904 1.7275 7.21904 1.46875 7.21904Z" fill="#515151"/>
<path d="M7.875 15.5C6.5825 15.5 5.53125 14.4487 5.53125 13.1562C5.53125 12.8975 5.74125 12.6875 6 12.6875C6.25875 12.6875 6.46875 12.8975 6.46875 13.1562C6.46875 13.9319 7.09932 14.5625 7.875 14.5625C8.65057 14.5625 9.28125 13.9319 9.28125 13.1562C9.28125 12.8975 9.49125 12.6875 9.75 12.6875C10.0088 12.6875 10.2188 12.8975 10.2188 13.1562C10.2188 14.4487 9.1675 15.5 7.875 15.5V15.5Z" fill="#515151"/>
<path d="M13.0313 13.625H2.71883C2.11561 13.625 1.625 13.1344 1.625 12.5313C1.625 12.2112 1.76439 11.9082 2.00758 11.7C2.95812 10.8968 3.5 9.72943 3.5 8.49255V6.74996C3.5 4.33755 5.46255 2.375 7.87508 2.375C10.2875 2.375 12.25 4.33755 12.25 6.74996V8.49255C12.25 9.72943 12.7919 10.8968 13.7363 11.6956C13.9856 11.9082 14.125 12.2112 14.125 12.5313C14.125 13.1344 13.6344 13.625 13.0313 13.625V13.625ZM7.87508 3.3125C5.97936 3.3125 4.4375 4.85436 4.4375 6.74996V8.49255C4.4375 10.0056 3.77443 11.4344 2.6188 12.4112C2.59695 12.43 2.5625 12.4688 2.5625 12.5313C2.5625 12.6162 2.6338 12.6875 2.71883 12.6875H13.0313C13.1162 12.6875 13.1875 12.6162 13.1875 12.5313C13.1875 12.4688 13.1532 12.43 13.1325 12.4125C11.9756 11.4344 11.3125 10.0056 11.3125 8.49255V6.74996C11.3125 4.85436 9.77068 3.3125 7.87508 3.3125V3.3125Z" fill="#515151"/>
<path d="M7.875 3.3125C7.61625 3.3125 7.40625 3.1025 7.40625 2.84375V0.96875C7.40625 0.709999 7.61625 0.5 7.875 0.5C8.13375 0.5 8.34375 0.709999 8.34375 0.96875V2.84375C8.34375 3.1025 8.13375 3.3125 7.875 3.3125Z" fill="#515151"/>
</svg>

<svg xmlns="http://www.w3.org/2000/svg" width="16" height="16" fill="none"><path fill="#515151" d="M14.28 7.22a.469.469 0 0 1-.468-.47A6.676 6.676 0 0 0 11.844 2a.469.469 0 1 1 .664-.663 7.609 7.609 0 0 1 2.241 5.414c0 .259-.21.469-.468.469ZM1.469 7.219A.469.469 0 0 1 1 6.75c0-2.045.796-3.968 2.242-5.413A.469.469 0 0 1 3.906 2a6.672 6.672 0 0 0-1.969 4.75c0 .259-.21.469-.468.469ZM7.875 15.5a2.346 2.346 0 0 1-2.344-2.344.469.469 0 0 1 .938 0c0 .776.63 1.406 1.406 1.406.776 0 1.406-.63 1.406-1.406a.469.469 0 0 1 .938 0A2.346 2.346 0 0 1 7.875 15.5Z"/><path fill="#515151" d="M13.031 13.625H2.72a1.095 1.095 0 0 1-.711-1.925A4.189 4.189 0 0 0 3.5 8.493V6.75a4.38 4.38 0 0 1 4.375-4.375A4.38 4.38 0 0 1 12.25 6.75v1.743c0 1.236.542 2.404 1.486 3.203a1.094 1.094 0 0 1-.705 1.929ZM7.875 3.312A3.441 3.441 0 0 0 4.437 6.75v1.743A5.122 5.122 0 0 1 2.62 12.41a.156.156 0 0 0 .1.277H13.03a.158.158 0 0 0 .156-.157.154.154 0 0 0-.054-.119 5.124 5.124 0 0 1-1.82-3.92V6.75a3.441 3.441 0 0 0-3.438-3.438Z"/><path fill="#515151" d="M7.875 3.313a.469.469 0 0 1-.469-.47V.97a.469.469 0 0 1 .938 0v1.875c0 .259-.21.469-.469.469Z"/></svg>
